X:9461
T:Leeds Hornpipe. FK.11
M:4/4
L:1/8
Q:160
C:"MS 40 p 39"
S:Kidson's H'pipe MS,early 20thC.
R:Hornpipe
O:England
A:Leeds
N:
Z:vmp.John Bagnall
K:B_
B,DFD B,BdB | FAcA Bdfd | egec dfdB | cBAG FEDC |!
B,FDF B,BdB | FAcA Bdfd | egec dfdB |  GecA B2 z2 ||!
dfbf dfbf | dfbf edcB | dfbf dfbf | edcB A2 Bc |!
 dfbf dfbf | edcB AcAF | egec dfdB | GecA B2 B2 :|]


